X:1
T:Unga Dora
T:Unga Dora
T:Svensk folkvisa
T:Isidor Dannström
C:Isidor Dannström
%%score [ 1 2 3 4 ]
L:1/8
Q:1/4=76
M:2/4
K:A
V:1 treble-8 nm="T1"
V:2 treble-8 nm="T2"
V:3 bass nm="B1"
V:4 bass nm="B2"
V:1
"^Allegretto"!mf! E | c c !>!d3/2 c/ | c B z ^A/ B/ | e e f3/2 e/ | c2 z!pp! E | c c !>!d3/2 c/ | %6
w: 1,Ack|hör du lil- la|Do- ra, vill du|gif- ta dig i|år? Ack|hör du lil- la|
w: 2.Det|löf- te som du|gaf mig, se det|li- ta- de jag|till. De|löf- te som du|
 c B z ^A/ B/ |!<(! e e!<)!!>(! f3/2 e/!>)! | c2 z!mf! e | f2 d d | e c c c | !>!c2 !>!B !>!c | %12
w: Do- ra, vill du|gif- ta dig i|år? I|år ä de|åt- ta å- ren|gång- na för-|
w: gaf mig, se det|li- ta- de jag|till. Nu|kär- lek skall|lö- na dig, du|fa- ra- ste|
 !>!d2!pp! F G |!<(! B2-!<)!!>(! B2!>)! | A2 z!mf! e | f2 d d | e c!<(! c c!<)! | !>!c2 !>!f !>!e | %18
w: bi i- bland|ro- *|sor. I|år ä de|åt- ta å- ren|gång- na för-|
w: mö i- bland|ro- *|sor. Nu|kär- lek skall|lö- na dig, du|fag- ra- ste|
 !>!d2!pp! F G |!<(! B2-!<)!!>(! B2!>)! | A2 z |] %21
w: bi i- bland|ro- *|sor.|
w: mö bi- bland|ro- *|sor.|
V:2
!mf! E | A A !>!A3/2 A/ | F F F F | E G G3/2 G/ | A2 z!pp! E | A A !>!A3/2 A/ | F F F F | %7
w: 1,Ack|hör du lil- la|Do- ra, vill du|gif- ta dig i|år? Ack|hör du lil- la|Do- ra, vill du|
w: 2.Det|löf- te som du|gaf mig, se det|li- ta- de jag|till. De|löf- te som du|gaf mig, se det|
!<(! E G!<)!!>(! G3/2 G/!>)! | A2 z!mf! A | A2 A A | c A A B | !>!^A2 !>!G !>!A | !>!B2!pp! F E | %13
w: gif- ta dig i|år? I|år ä de|åt- ta å- ren|gång- na för-|bi i- bland|
w: li- ta- de jag|till. Nu|kär- lek skall|lö- na dig, du|fa- ra- ste|mö i- bland|
!<(! (E2!<)!!>(! =FE)!>)! | E2 z!mf! A | A2 A A | c A!<(! A B!<)! | !>!^A2 !>!B !>!c | %18
w: ro- * *|sor. I|år ä de|åt- ta å- ren|gång- na för-|
w: ro- * *|sor. Nu|kär- lek skall|lö- na dig, du|fag- ra- ste|
 !>!B2!pp! F E |!<(! (E2!<)!!>(! =FE)!>)! | E2 z |] %21
w: bi i- bland|ro- * *|sor.|
w: mö bi- bland|ro- * *|sor.|
V:3
!mf! E, | E, E, !>!F,3/2 E,/ | D, D, D, D, | D, D, D,3/2 E,/ | E,2 z!pp! E, | E, E, !>!F,3/2 E,/ | %6
w: 1,Ack|hör du lil- la|Do- ra, vill du|gif- ta dig i|år? Ack|hör du lil- la|
w: 2.Det|löf- te som du|gaf mig, se det|li- ta- de jag|till. De|löf- te som du|
 D, D, D, D, |!<(! D, D,!<)!!>(! D,3/2 E,/!>)! | E,2 z!mf! C, | D,2 F, F, | A, E, E, E, | %11
w: Do- ra, vill du|gif- ta dig i|år? I|år ä de|åt- ta å- ren|
w: gaf mig, se det|li- ta- de jag|till. Nu|kär- lek skall|lö- na dig, du|
 !>!F,2 !>!F, !>!F, | !>!F,2!pp! D, D, |!<(! D,2-!<)!!>(! D,2!>)! | C,2 z!mf! C, | D,2 F, F, | %16
w: gång- na för-|bi i- bland|ro- *|sor. I|år ä de|
w: fa- ra- ste|mö i- bland|ro- *|sor. Nu|kär- lek skall|
 A, E,!<(! E, E,!<)! | !>!F,2 !>!F, !>!F, | !>!F,2!pp! D, D, |!<(! D,2-!<)!!>(! D,2!>)! | C,2 z |] %21
w: åt- ta å- ren|gång- na för-|bi i- bland|ro- *|sor.|
w: lö- na dig, du|fag- ra- ste|mö bi- bland|ro- *|sor.|
V:4
!mf! E, | A,, A,, !>!A,,3/2 A,,/ | A,, A,, A,, A,, | G,, B,, B,,3/2 B,,/ | A,,2 z!pp! E, | %5
w: 1,Ack|hör du lil- la|Do- ra, vill du|gif- ta dig i|år? Ack|
w: 2.Det|löf- te som du|gaf mig, se det|li- ta- de jag|till. De|
 A,, A,, !>!A,,3/2 A,,/ | A,, A,, A,, A,, |!<(! G,, B,,!<)!!>(! B,,3/2 B,,/!>)! | A,,2 z!mf! C, | %9
w: hör du lil- la|Do- ra, vill du|gif- ta dig i|år? I|
w: löf- te som du|gaf mig, se det|li- ta- de jag|till. Nu|
 D,2 D, F, | A, A,, A, =G, | !>!F,2 !>!F,, !>!F,, | !>!B,,2!pp! B,, B,, | %13
w: år ä de|åt- ta å- ren|gång- na för-|bi i- bland|
w: kär- lek skall|lö- na dig, du|fa- ra- ste|mö i- bland|
!<(! G,,2-!<)!!>(! G,,2!>)! | A,,2 z!mf! C, | D,2 D, F, | A, A,,!<(! A, =G,!<)! | %17
w: ro- *|sor. I|år ä de|åt- ta å- ren|
w: ro- *|sor. Nu|kär- lek skall|lö- na dig, du|
 (!>!F,F,,) !>!G,, !>!^A,, | !>!B,,2!pp! B,, B,, |!<(! G,,2-!<)!!>(! G,,2!>)! | A,,2 z |] %21
w: gång- * na för-|bi i- bland|ro- *|sor.|
w: fag- * ra- ste|mö bi- bland|ro- *|sor.|

